X: 21369
T: Kerry Lasses, The
R: reel
M: 4/4
K: Dmajor
F2 FG AF F2|AG G2 dcAG|F2 FG AF F2|1 BGAG FDDE:|2 BGAG FDcd||
e2 ed c2 cd|eg g2 eaag|e2 ed c2 cd|egec d2 cd|
e2 ed c2 cd|eg g2 eaa^g|abag efed|e/f/g ec d2 AG||

